docs/assets/images/calc-svg/chamfer-14.svg

<svg width="76" height="44" viewBox="0 0 76 44" fill="none" xmlns="http://www.w3.org/2000/svg">
<path d="M74.8889 25.2083L33.7639 43L1.68056 35.125L1 12.9583L45.5278 1L65.8472 3.96045V11.4028L74.8889 12.8611V25.2083Z" fill="#D2D2D2"/>
<path d="M33.7639 43L74.8889 25.2083V12.8611M33.7639 43L1.68056 35.125L1 12.9583M33.7639 43V27.7361M65.8472 11.4028V3.96045M65.8472 11.4028L74.8889 12.8611M65.8472 11.4028L22.6806 25.6944M1 12.9583L45.5278 1L65.8472 3.96045M1 12.9583L22.6806 17.14M22.6806 25.6944L33.7639 27.7361M22.6806 25.6944V17.14M33.7639 27.7361L74.8889 12.8611M22.6806 17.14L65.8472 3.96045" stroke="#838383"/>
</svg>

<svg width="76" height="44" fill="none" xmlns="http://www.w3.org/2000/svg"><path d="M74.889 25.208L33.764 43 1.68 35.125 1 12.958 45.528 1l20.32 2.96v7.443l9.04 1.458v12.347z" fill="#D2D2D2"/><path d="M33.764 43l41.125-17.792V12.861M33.764 43L1.68 35.125 1 12.958M33.764 43V27.736m32.083-16.333V3.96m0 7.443l9.042 1.458m-9.042-1.458L22.681 25.694M1 12.958L45.528 1l20.32 2.96M1 12.958l21.68 4.182m0 8.554l11.084 2.042M22.68 25.694V17.14m11.083 10.596l41.125-14.875M22.68 17.14L65.847 3.96" stroke="#838383"/></svg>
